img/icons/svg/icon__people.svg

<svg width="46" height="26" fill="none" xmlns="http://www.w3.org/2000/svg">
  <path d="M38.3359 12.4789C40.8876 12.4789 42.9561 10.689 42.9561 8.48113 42.9561 6.27323 40.8876 4.48337 38.3359 4.48337 35.7841 4.48337 33.7156 6.27323 33.7156 8.48113 33.7156 10.689 35.7841 12.4789 38.3359 12.4789zM7.62809 12.4789C10.1798 12.4789 12.2484 10.689 12.2484 8.48113 12.2484 6.27323 10.1798 4.48337 7.62809 4.48337 5.07638 4.48337 3.00781 6.27323 3.00781 8.48113 3.00781 10.689 5.07638 12.4789 7.62809 12.4789zM23.0062 12.0277C26.6116 12.0277 29.5343 9.49878 29.5343 6.37915 29.5343 3.25952 26.6116.73056 23.0062.73056 19.4008.73056 16.478 3.25952 16.478 6.37915 16.478 9.49878 19.4008 12.0277 23.0062 12.0277zM13.5073 16.5933C12.7199 16.0682 11.7341 15.7549 10.6631 15.7549H4.66494C2.08861 15.7549 0 17.5621 0 19.7913V21.2944C0 21.5485.238069 21.7545.531767 21.7545H10.1605C10.4165 19.6581 11.6727 17.8163 13.5073 16.5933zM27.2133 17.5136H18.799C15.5849 17.5136 12.9792 19.7682 12.9792 22.5493V24.4802C12.9792 24.8069 13.2853 25.0717 13.6628 25.0717H32.3494C32.727 25.0717 33.033 24.8069 33.033 24.4802V22.5492C33.033 19.7681 30.4275 17.5136 27.2133 17.5136zM41.335 15.6932H35.3368C34.2701 15.6932 33.2721 16.0294 32.4736 16.5716 34.3074 17.7826 35.5694 19.6097 35.8437 21.6928H45.5031C45.7775 21.6928 45.9999 21.5004 45.9999 21.263V19.7297C45.9999 17.5004 43.9114 15.6932 41.335 15.6932z" fill="#304BAB"/>
</svg>

<svg width="46" height="26" fill="none" xmlns="http://www.w3.org/2000/svg"><path d="M38.336 12.479c2.552 0 4.62-1.79 4.62-3.998s-2.068-3.998-4.62-3.998-4.62 1.79-4.62 3.998 2.068 3.998 4.62 3.998zm-30.708 0c2.552 0 4.62-1.79 4.62-3.998s-2.068-3.998-4.62-3.998-4.62 1.79-4.62 3.998 2.068 3.998 4.62 3.998zm15.378-.451c3.606 0 6.528-2.53 6.528-5.649 0-3.12-2.922-5.648-6.528-5.648-3.605 0-6.528 2.529-6.528 5.648 0 3.12 2.923 5.649 6.528 5.649zm-9.499 4.565a5.124 5.124 0 00-2.844-.838H4.665C2.089 15.755 0 17.562 0 19.79v1.503c0 .255.238.46.532.46h9.629c.255-2.096 1.512-3.938 3.346-5.16zm13.706.92H18.8c-3.214 0-5.82 2.255-5.82 5.036v1.931c0 .327.306.592.684.592H32.35c.378 0 .684-.265.684-.592v-1.93c0-2.782-2.606-5.036-5.82-5.036zm14.122-1.82h-5.998a5.117 5.117 0 00-2.863.879c1.833 1.21 3.095 3.038 3.37 5.12h9.66c.274 0 .496-.192.496-.429V19.73c0-2.23-2.089-4.037-4.665-4.037z" fill="#304BAB"/></svg>
